img/icons-payable-taxes/01.svg

<svg width="48" height="50" viewBox="0 0 48 50" fill="none" xmlns="http://www.w3.org/2000/svg">
<path d="M24.6759 33.7187C42.6178 39.0667 55.0387 16.6044 41.0679 4.19503C40.7618 3.93157 40.3003 3.96588 40.0368 4.27193C39.7735 4.57789 39.8078 5.03941 40.1137 5.30287C53.0827 16.8559 41.186 37.6154 24.6759 32.1778V27.2102C24.6759 26.5837 24.2967 25.7015 22.4908 25.0568C20.4304 24.3213 18.0533 24.2561 15.9027 24.5601C9.00953 11.104 23.1173 -3.47108 36.7523 3.08592C37.1146 3.26292 37.5526 3.11272 37.7299 2.74994C37.9071 2.38725 37.7568 1.94952 37.3941 1.77222C22.6867 -5.31628 7.32135 10.181 14.419 24.861C14.2005 24.9209 13.9904 24.9859 13.7919 25.0568C11.986 25.7016 11.6068 26.5838 11.6068 27.2102V32.0761C10.1201 31.3725 8.51692 31.1472 6.54354 31.1204C5.57576 31.1533 5.57547 32.5487 6.54276 32.5824C8.00949 32.5832 9.37748 32.7839 10.3949 33.1476C11.3962 33.5055 11.6069 33.8668 11.6069 33.9231C11.6069 33.9796 11.3958 34.3415 10.3923 34.6996C8.06514 35.5304 5.00274 35.53 2.67662 34.6996C1.67317 34.3414 1.46205 33.9795 1.46205 33.9231C1.46205 33.8569 1.71859 33.4403 2.93784 33.0602C3.85211 32.7402 3.43601 31.4084 2.50283 31.6645C0.434228 32.3092 0 33.2487 0 33.9231V47.139C0 47.7655 0.379158 48.6477 2.18508 49.2924C4.82827 50.2359 8.24157 50.2356 10.8839 49.2924C11.5407 49.0579 12.0082 48.7919 12.3379 48.5183C12.6677 48.7919 13.1351 49.0579 13.792 49.2924C16.4353 50.2359 19.8486 50.2356 22.4909 49.2924C23.1477 49.0579 23.6152 48.7919 23.9449 48.5183C24.2747 48.7919 24.7421 49.0579 25.399 49.2924C28.0422 50.2359 31.4555 50.2356 34.0978 49.2924C35.9037 48.6476 36.2829 47.7654 36.2829 47.139V40.531C36.2829 39.9045 35.9037 39.0223 34.0978 38.3776C31.4546 37.4341 28.0413 37.4344 25.399 38.3776C25.1266 38.4749 24.8871 38.5776 24.676 38.6841C24.6752 37.7311 24.6773 34.9029 24.6752 33.9087C24.6764 33.8823 24.6757 33.7473 24.6759 33.7187ZM34.8207 43.8351C34.8207 43.8915 34.6096 44.2534 33.6062 44.6115C31.279 45.4423 28.2166 45.4419 25.8904 44.6115C24.887 44.2533 24.6759 43.8914 24.6759 43.8351V42.3782C24.887 42.4845 25.1265 42.5873 25.3989 42.6846C28.0421 43.6281 31.4554 43.6278 34.0977 42.6846C34.3701 42.5873 34.6096 42.4846 34.8207 42.3782V43.8351ZM23.2138 30.5142C23.2138 30.5707 23.0027 30.9326 21.9992 31.2907C19.6721 32.1215 16.6095 32.1212 14.2834 31.2907C13.28 30.9325 13.0689 30.5706 13.0689 30.5142V29.0574C13.28 29.1637 13.5195 29.2665 13.7919 29.3638C16.4352 30.3073 19.8485 30.307 22.4908 29.3638C22.7632 29.2665 23.0027 29.1638 23.2138 29.0574V30.5142ZM13.7919 32.6676C16.686 33.676 20.4158 33.6476 23.2138 32.3613V33.8707C23.2138 33.9271 23.0027 34.289 21.9992 34.6473C19.6719 35.4781 16.6097 35.4776 14.2834 34.6473C13.28 34.289 13.0689 33.9271 13.0689 33.8707V32.3613C13.28 32.4676 13.5194 32.5704 13.7919 32.6676ZM11.6068 40.531C11.6068 40.5875 11.3957 40.9494 10.3922 41.3076C8.06485 42.1384 5.00284 42.138 2.67652 41.3076C1.67307 40.9494 1.46195 40.5875 1.46195 40.531V39.0741C1.67307 39.1805 1.91255 39.2833 2.18498 39.3806C4.82817 40.3241 8.24147 40.3238 10.8838 39.3806C11.1562 39.2833 11.3957 39.1806 11.6068 39.0741V40.531ZM1.46195 42.3781C1.67307 42.4844 1.91255 42.5872 2.18498 42.6845C4.82817 43.628 8.24147 43.6277 10.8838 42.6845C11.1562 42.5872 11.3957 42.4845 11.6068 42.3781V43.835C11.6068 43.8914 11.3957 44.2533 10.3922 44.6114C8.06505 45.4422 5.00264 45.4418 2.67652 44.6114C1.67307 44.2532 1.46195 43.8913 1.46195 43.835V42.3781ZM13.0689 42.3781C13.28 42.4844 13.5195 42.5872 13.7919 42.6845C16.4352 43.628 19.8485 43.6277 22.4908 42.6845C22.7632 42.5872 23.0027 42.4845 23.2138 42.3781V43.835C23.2138 43.8914 23.0027 44.2533 21.9992 44.6114C19.6721 45.4422 16.6095 45.4419 14.2834 44.6114C13.28 44.2532 13.0689 43.8913 13.0689 43.835V42.3781ZM21.9992 41.3076C19.6719 42.1384 16.6097 42.1379 14.2834 41.3076C13.28 40.9494 13.0689 40.5875 13.0689 40.531V39.0741C13.28 39.1805 13.5195 39.2833 13.7919 39.3806C16.4352 40.3241 19.8485 40.3238 22.4908 39.3806C22.7632 39.2833 23.0027 39.1806 23.2138 39.0741V40.531C23.2138 40.5875 23.0027 40.9494 21.9992 41.3076ZM23.2138 37.2271C23.2138 37.2835 23.0027 37.6453 21.9992 38.0035C19.6719 38.8344 16.6097 38.8339 14.2834 38.0035C13.28 37.6453 13.0689 37.2834 13.0689 37.2271V35.7177C13.28 35.824 13.5195 35.9268 13.7919 36.0241C16.4352 36.9676 19.8485 36.9673 22.4908 36.0241C22.7632 35.9268 23.0027 35.8241 23.2138 35.7177V37.2271ZM14.2834 26.4338C16.6098 25.6033 19.6735 25.6035 21.9992 26.4338C23.0027 26.792 23.2138 27.1539 23.2138 27.2102C23.2138 27.2665 23.0027 27.6285 21.9992 27.9867C19.6719 28.8176 16.6097 28.8171 14.2834 27.9867C13.28 27.6285 13.0689 27.2666 13.0689 27.2102C13.0689 27.1538 13.28 26.792 14.2834 26.4338ZM2.18498 36.0765C5.07906 37.0848 8.80884 37.0565 11.6068 35.7702V37.2272C11.6068 37.2836 11.3957 37.6455 10.3922 38.0036C8.06485 38.8345 5.00284 38.8341 2.67652 38.0036C1.67307 37.6454 1.46195 37.2835 1.46195 37.2272V35.7702C1.67297 35.8765 1.91246 35.9793 2.18498 36.0765ZM10.3922 47.9155C8.06485 48.7464 5.00284 48.746 2.67652 47.9155C1.67307 47.5573 1.46195 47.1954 1.46195 47.1391V45.6821C4.4996 47.0485 8.56994 47.0482 11.6068 45.6821V47.1391C11.6068 47.1954 11.3957 47.5573 10.3922 47.9155ZM21.9992 47.9155C19.6719 48.7464 16.6097 48.7459 14.2834 47.9155C13.28 47.5573 13.0689 47.1954 13.0689 47.1391V45.6821C16.1065 47.0485 20.1769 47.0482 23.2138 45.6821V47.1391C23.2138 47.1954 23.0027 47.5572 21.9992 47.9155ZM33.6062 47.9155C31.2788 48.7464 28.2168 48.746 25.8904 47.9155C24.887 47.5573 24.6759 47.1954 24.6759 47.1391V45.6821C27.7135 47.0485 31.7839 47.0482 34.8207 45.6821V47.1391C34.8207 47.1954 34.6096 47.5573 33.6062 47.9155ZM25.8904 39.7546C28.2178 38.9237 31.2798 38.9241 33.6062 39.7546C34.6096 40.1128 34.8207 40.4747 34.8207 40.531C34.8207 40.5874 34.6096 40.9494 33.6062 41.3076C31.2788 42.1384 28.2168 42.138 25.8904 41.3076C24.887 40.9494 24.6759 40.5875 24.6759 40.531C24.6759 40.4746 24.887 40.1128 25.8904 39.7546Z" fill="#007A65"/>
</svg>

<svg width="48" height="50" fill="none" xmlns="http://www.w3.org/2000/svg"><path d="M24.676 33.719c17.942 5.348 30.363-17.115 16.392-29.524a.731.731 0 10-.954 1.108c12.969 11.553 1.072 32.312-15.438 26.875V27.21c0-.626-.38-1.509-2.185-2.153-2.06-.736-4.438-.8-6.588-.497C9.01 11.104 23.117-3.47 36.753 3.086a.731.731 0 00.641-1.314C22.687-5.316 7.321 10.181 14.42 24.861a8.74 8.74 0 00-.627.196c-1.806.645-2.185 1.527-2.185 2.153v4.866c-1.487-.704-3.09-.929-5.063-.956-.968.033-.969 1.429-.001 1.462 1.466.001 2.834.202 3.852.566 1.001.357 1.212.719 1.212.775 0 .057-.211.419-1.215.777-2.327.83-5.39.83-7.715 0-1.004-.359-1.215-.72-1.215-.777 0-.066.257-.483 1.476-.863.914-.32.498-1.652-.435-1.396C.434 32.31 0 33.25 0 33.925V47.14c0 .627.38 1.509 2.185 2.153 2.643.944 6.057.944 8.699 0 .657-.234 1.124-.5 1.454-.774.33.274.797.54 1.454.774 2.643.944 6.057.944 8.699 0 .657-.234 1.124-.5 1.454-.774.33.274.797.54 1.454.774 2.643.944 6.056.944 8.699 0 1.806-.644 2.185-1.527 2.185-2.153v-6.608c0-.627-.38-1.509-2.185-2.153-2.643-.944-6.057-.944-8.699 0-.272.097-.512.2-.723.306V33.72zM34.82 43.835c0 .056-.211.418-1.215.776-2.327.831-5.39.83-7.716 0-1.003-.358-1.214-.72-1.214-.776v-1.457c.211.106.45.21.723.307 2.643.943 6.056.943 8.699 0 .272-.098.512-.2.723-.307v1.457zm-11.607-13.32c0 .056-.211.418-1.215.776-2.327.83-5.39.83-7.716 0-1.003-.358-1.214-.72-1.214-.777v-1.457c.211.107.45.21.723.307 2.643.943 6.057.943 8.699 0 .272-.098.512-.2.723-.307v1.457zm-9.422 2.153c2.894 1.008 6.624.98 9.422-.307v1.51c0 .056-.211.418-1.215.776-2.327.831-5.39.83-7.716 0-1.003-.358-1.214-.72-1.214-.776v-1.51c.211.107.45.21.723.307zm-2.185 7.863c0 .056-.211.418-1.215.777-2.327.83-5.39.83-7.715 0-1.004-.359-1.215-.72-1.215-.777v-1.457c.211.107.45.21.723.307 2.643.943 6.056.943 8.699 0 .272-.098.512-.2.723-.307v1.457zM1.462 42.378c.211.106.45.21.723.306 2.643.944 6.056.944 8.699 0 .272-.097.512-.2.723-.306v1.457c0 .056-.211.418-1.215.776-2.327.831-5.39.83-7.715 0-1.004-.358-1.215-.72-1.215-.776v-1.457zm11.607 0c.211.106.45.21.723.306 2.643.944 6.057.944 8.699 0 .272-.097.512-.2.723-.306v1.457c0 .056-.211.418-1.215.776-2.327.831-5.39.83-7.716 0-1.003-.358-1.214-.72-1.214-.776v-1.457zm8.93-1.07c-2.327.83-5.39.83-7.716 0-1.003-.359-1.214-.72-1.214-.777v-1.457c.211.107.45.21.723.307 2.643.943 6.057.943 8.699 0 .272-.098.512-.2.723-.307v1.457c0 .056-.211.418-1.215.777zm1.215-4.08c0 .055-.211.417-1.215.776-2.327.83-5.39.83-7.716 0-1.003-.359-1.214-.72-1.214-.777v-1.51c.211.107.45.21.723.307 2.643.944 6.057.943 8.699 0 .272-.097.512-.2.723-.306v1.51zm-8.93-10.794c2.326-.83 5.39-.83 7.715 0 1.004.358 1.215.72 1.215.776 0 .056-.211.418-1.215.777-2.327.83-5.39.83-7.716 0-1.003-.358-1.214-.72-1.214-.777 0-.056.211-.418 1.214-.776zm-12.1 9.643c2.894 1.008 6.624.98 9.422-.307v1.457c0 .057-.211.419-1.215.777-2.327.83-5.39.83-7.715 0-1.004-.359-1.215-.72-1.215-.777V35.77c.211.106.45.21.723.306zm8.207 11.839c-2.327.83-5.39.83-7.715 0-1.004-.359-1.215-.72-1.215-.777v-1.457c3.038 1.366 7.108 1.366 10.145 0v1.457c0 .056-.211.418-1.215.776zm11.607 0c-2.327.83-5.39.83-7.716 0-1.003-.359-1.214-.72-1.214-.777v-1.457c3.037 1.366 7.108 1.366 10.145 0v1.457c0 .056-.211.418-1.215.776zm11.607 0c-2.327.83-5.39.83-7.716 0-1.003-.359-1.214-.72-1.214-.777v-1.457c3.038 1.366 7.108 1.366 10.145 0v1.457c0 .056-.211.418-1.215.776zm-7.716-8.161c2.328-.831 5.39-.83 7.716 0 1.004.358 1.215.72 1.215.776 0 .056-.211.418-1.215.777-2.327.83-5.39.83-7.716 0-1.003-.359-1.214-.72-1.214-.777 0-.056.211-.418 1.214-.776z" fill="#007A65"/></svg>
